X:26
T:The Morning Dance
S:John Moore's Book 1
Z:Transcribed by Paul Barber-Riley  April 2016
M:2/4
L:1/8
K:G
F:http://www.vwml.org/record/Moore1/4493/p16
(G/F/G/A/) GD|GB B2|(B/A/B/c/) BA|Bdd2|cdd2|ceAc|BdGg|({g}fe/d/) (AB/^c/)|ddd2:|
|:(d/c/d/e/) dB|ca a2|(c/B/c/d/) cA|Bgg2|(c/d/e/c/) (A/B/c/A/) |
(B/c/d/B/) (G/A/B/G/)|(A/B/c/A/)  (G/A/B/G/)|(A/B/c/A/) (D/E/F/D/) |GG G2:|

